src/pos-icons/clock-alert-outline.svg

<svg height="24" viewBox="0 0 24 24" width="24" xmlns="http://www.w3.org/2000/svg"><path d="m12 2c-5.53 0-10 4.5-10 10a10 10 0 0 0 10 10c2.25 0 4.33-.76 6-2v-2.72c-1.47 1.66-3.61 2.72-6 2.72a8 8 0 0 1 -8-8 8 8 0 0 1 8-8c3.36 0 6.23 2.07 7.41 5h2.13c-1.27-4.06-5.04-7-9.54-7m-1 5v6l5.25 3.15.75-1.23-4.5-2.67v-5.25zm9 4v7h2v-7zm0 9v2h2v-2z"/></svg>

<?xml version="1.0" encoding="UTF-8"?><!DOCTYPE svg PUBLIC "-//W3C//DTD SVG 1.1//EN" "http://www.w3.org/Graphics/SVG/1.1/DTD/svg11.dtd"><svg xmlns="http://www.w3.org/2000/svg" xmlns:xlink="http://www.w3.org/1999/xlink" version="1.1" id="mdi-clock-alert-outline" width="24" height="24" viewBox="0 0 24 24"><path d="M12,2C6.47,2 2,6.5 2,12A10,10 0 0,0 12,22C14.25,22 16.33,21.24 18,20V17.28C16.53,18.94 14.39,20 12,20A8,8 0 0,1 4,12A8,8 0 0,1 12,4C15.36,4 18.23,6.07 19.41,9H21.54C20.27,4.94 16.5,2 12,2M11,7V13L16.25,16.15L17,14.92L12.5,12.25V7H11M20,11V18H22V11H20M20,20V22H22V20H20Z" /></svg>
